cssgg/arrow-long-right-e.svg

<svg
  width="24"
  height="24"
  viewBox="0 0 24 24"
  fill="none"
  xmlns="http://www.w3.org/2000/svg"
>
  <path
    fill-rule="evenodd"
    clip-rule="evenodd"
    d="M22.9865 11.9929L18.7511 16.2426L17.3345 14.8308L19.1488 13.0104L7.0314 13.0519L7.04038 15.0507L1.04044 15.0777L1.01349 9.07773L7.01343 9.05079L7.02242 11.0519L19.1674 11.0103L17.3249 9.17398L18.7367 7.75739L22.9865 11.9929ZM3.02245 11.0687L3.03143 13.0687L5.03141 13.0597L5.02243 11.0597L3.02245 11.0687Z"
    fill="currentColor"
  />
</svg>

<svg viewBox="0 0 24 24" xmlns="http://www.w3.org/2000/svg"><path fill-rule="evenodd" d="M22.98 11.99l-4.24 4.24 -1.42-1.42 1.81-1.83 -12.12.04 0 1.99 -6 .02 -.03-6L6.97 9l0 2 12.14-.05 -1.85-1.84 1.41-1.42 4.24 4.23Zm-19.97-.93l0 2L5 13.05l-.01-2 -2 0Z"/></svg>
